X:1
T:Return From The Waterside
R:reel
H:Used as tune for Shropshire Bedlams dance "Dawley"
H:Dance reconstructed by Andy Anderson of Red Stags Morris.
C:Andy Anderson.
M:4/4
L:1/8
K:G
D2 | B2 B2 ABcA | G2 G2 FGAD | EFGE FGAF | GBAG F2 D2 |
B2 B2 ABcA | G2 G2 FGAD | EFGE FGAF | G2 B2 G2 ||
Bc | d2 d2 edcB | cBAG FGAF | GABG ABcA | BdBd A2 D2 |
GABG ABcA | BcdB cedc | BGBG AFAF | G2 B2 G2 ||
